client/media/icons/_12_info.svg

<?xml version="1.0" encoding="UTF-8" standalone="no"?><!DOCTYPE svg PUBLIC "-//W3C//DTD SVG 1.1//EN" "http://www.w3.org/Graphics/SVG/1.1/DTD/svg11.dtd"><svg width="100%" height="100%" viewBox="0 0 48 48" version="1.1" xmlns="http://www.w3.org/2000/svg" xmlns:xlink="http://www.w3.org/1999/xlink" xml:space="preserve" xmlns:serif="http://www.serif.com/" style="fill-rule:evenodd;clip-rule:evenodd;stroke-linejoin:round;stroke-miterlimit:2;"><path d="M5,43l0,-4.847l26.147,0l0,4.847l-26.147,0Zm27.304,-16.396c-2.975,-0 -5.489,-1.044 -7.541,-3.133c-2.052,-2.088 -3.078,-4.64 -3.078,-7.656c0,-3.017 1.031,-5.573 3.091,-7.67c2.06,-2.097 4.578,-3.145 7.554,-3.145c2.976,0 5.498,1.057 7.567,3.171c2.069,2.114 3.103,4.671 3.103,7.67c-0,3.016 -1.043,5.564 -3.128,7.643c-2.086,2.08 -4.609,3.12 -7.568,3.12Zm-27.304,-2.681l-0,-4.847l12.935,-0c0.205,0.905 0.483,1.758 0.834,2.561c0.35,0.802 0.763,1.564 1.238,2.286l-15.007,-0Zm-0,9.538l-0,-4.846l20.297,-0c0.841,0.631 1.755,1.115 2.742,1.453c0.987,0.337 2.023,0.54 3.108,0.609l0,2.784l-26.147,0Zm25.639,-10.776l3.408,0l-0,-8.249l-3.408,-0l-0,8.249Zm1.678,-10.312c0.475,0 0.882,-0.163 1.221,-0.49c0.339,-0.326 0.509,-0.73 0.509,-1.211c-0,-0.482 -0.166,-0.894 -0.499,-1.238c-0.332,-0.344 -0.742,-0.515 -1.231,-0.515c-0.475,-0 -0.873,0.168 -1.195,0.505c-0.322,0.337 -0.483,0.753 -0.483,1.248c-0,0.481 0.161,0.885 0.483,1.211c0.322,0.327 0.72,0.49 1.195,0.49Z" style="fill-rule:nonzero;"/></svg>

<?xml version="1.0" encoding="UTF-8" standalone="no"?>
<!DOCTYPE svg PUBLIC "-//W3C//DTD SVG 1.1//EN" "http://www.w3.org/Graphics/SVG/1.1/DTD/svg11.dtd">
<svg width="100%" height="100%" viewBox="0 0 40 40" version="1.1" xmlns="http://www.w3.org/2000/svg" xmlns:xlink="http://www.w3.org/1999/xlink" xml:space="preserve" xmlns:serif="http://www.serif.com/" style="fill-rule:evenodd;clip-rule:evenodd;stroke-linejoin:round;stroke-miterlimit:2;">
    <g transform="matrix(1.05263,0,0,1.05263,-5.26316,-5.26316)">
        <path d="M5,43L5,38.153L31.147,38.153L31.147,43L5,43ZM32.304,26.604C29.329,26.604 26.815,25.56 24.763,23.471C22.711,21.383 21.685,18.831 21.685,15.815C21.685,12.798 22.716,10.242 24.776,8.145C26.836,6.048 29.354,5 32.33,5C35.306,5 37.828,6.057 39.897,8.171C41.966,10.285 43,12.842 43,15.841C43,18.857 41.957,21.405 39.872,23.484C37.786,25.564 35.263,26.604 32.304,26.604ZM5,23.923L5,19.076L17.935,19.076C18.14,19.981 18.418,20.834 18.769,21.637C19.119,22.439 19.532,23.201 20.007,23.923L5,23.923ZM5,33.461L5,28.615L25.297,28.615C26.138,29.246 27.052,29.73 28.039,30.068C29.026,30.405 30.062,30.608 31.147,30.677L31.147,33.461L5,33.461ZM30.639,22.685L34.047,22.685L34.047,14.436L30.639,14.436L30.639,22.685ZM32.317,12.373C32.792,12.373 33.199,12.21 33.538,11.883C33.877,11.557 34.047,11.153 34.047,10.672C34.047,10.19 33.881,9.778 33.548,9.434C33.216,9.09 32.806,8.919 32.317,8.919C31.842,8.919 31.444,9.087 31.122,9.424C30.8,9.761 30.639,10.177 30.639,10.672C30.639,11.153 30.8,11.557 31.122,11.883C31.444,12.21 31.842,12.373 32.317,12.373Z" style="fill-rule:nonzero;"/>
    </g>
</svg>
